unite@hardpixel.eu/themes/yaru/close-active.svg

<svg height="24" width="24" xmlns="http://www.w3.org/2000/svg">
  <circle cx="12" cy="12" fill="#d14515" r="9"/>
  <path d="m8.795 7.912-.883.883 3.205 3.205-3.204 3.205.883.883 3.204-3.205 3.205 3.205.883-.883-3.205-3.205 3.205-3.205-.883-.883-3.205 3.205z" fill="#fff"/>
</svg>

<svg width="24" height="24" xmlns="http://www.w3.org/2000/svg">
  <circle cx="12" cy="12" fill="#d14515" r="9"/>
  <path d="M 8.795,7.912 7.912,8.795 11.117,12 7.913,15.205 8.796,16.088 12,12.883 15.205,16.088 16.088,15.205 12.883,12 16.088,8.795 15.205,7.912 12,11.117 Z" fill="#fff"/>
</svg>
